apps/ui-icons/svgs/swap_account.svg

<svg viewBox="0 0 24 24" width="24" height="24"  fill="none" xmlns="http://www.w3.org/2000/svg">
<path d="M10.7072 4.70711C11.0977 4.31658 11.0977 3.68342 10.7072 3.29289C10.3167 2.90237 9.68351 2.90237 9.29299 3.29289L4.30104 8.28484C4.26078 8.3242 4.22382 8.36693 4.19063 8.41257C4.16927 8.44194 4.1497 8.47221 4.13192 8.50323C4.04799 8.64958 4 8.81919 4 9C4 9.18008 4.0476 9.34903 4.1309 9.49498C4.14945 9.52752 4.16998 9.55924 4.19248 9.58996C4.24677 9.66414 4.31104 9.73057 4.3833 9.78725C4.5532 9.92053 4.76732 10 5 10H19C19.5523 10 20 9.55228 20 9C20 8.44772 19.5523 8 19 8H7.41431L10.7072 4.70711Z" fill="#171D26"/>
<path d="M4 16C4 15.4477 4.44772 15 5 15L19 15C19.2317 15 19.4449 15.0788 19.6145 15.211C19.6849 15.2659 19.7478 15.3301 19.8013 15.4017C19.8092 15.4122 19.8169 15.4229 19.8243 15.4337C19.8351 15.4493 19.8454 15.4652 19.8552 15.4815C19.8625 15.4935 19.8696 15.5057 19.8764 15.5181C19.9552 15.661 20 15.8253 20 16C20 16.1769 19.9541 16.3431 19.8735 16.4872C19.8685 16.4962 19.8633 16.5051 19.8581 16.5139C19.8447 16.5361 19.8305 16.5578 19.8155 16.5789C19.8094 16.5875 19.8031 16.596 19.7967 16.6044C19.7669 16.6437 19.7343 16.6807 19.6991 16.7151L14.707 21.7071C14.3165 22.0976 13.6833 22.0976 13.2928 21.7071C12.9023 21.3166 12.9023 20.6834 13.2928 20.2929L16.5857 17L5 17C4.44772 17 4 16.5523 4 16Z" fill="#171D26"/>
</svg>

<svg xmlns="http://www.w3.org/2000/svg" width="24" height="24" fill="none" viewBox="0 0 24 24">
  <path fill="#171D26" d="M10.707 4.707a1 1 0 0 0-1.414-1.414L4.301 8.285A1.007 1.007 0 0 0 4 9a.995.995 0 0 0 .383.787c.17.134.384.213.617.213h14a1 1 0 1 0 0-2H7.414l3.293-3.293ZM4 16a1 1 0 0 1 1-1h14a.996.996 0 0 1 .876.518.995.995 0 0 1-.08 1.086.997.997 0 0 1-.097.111l-4.992 4.992a1 1 0 0 1-1.414-1.414L16.586 17H5a1 1 0 0 1-1-1Z"/>
</svg>
